!!!!SEGMENT: pl-wn--sd-xvi-qu-273--109_gomolka-mikolaj--boze-ktorego-chwala-w-mych-usciech-wieczna.krn
!!!cenid: 15xx:314
!!!COM: Gomółka, Mikołaj
!!!COM-rismid: pe30013343
!!!CDT: ~1535->1591/04/30
!!!CNT: Polish
!!!GTL: Melodiae na psalterz polski
!!!OTL: CIX. Boże, którego chwała w mych uściech wieczna,
!!!ONB: PSALM CIX. Deus laudem meam ne tacueris: quia os peccatoris, et os doloſi ſuper me apertum eſt.
!!!PDT: 1580
!!!AGN: Sacred
!!!SMS-siglum: PL-Wn
!!!SMS-shelfmark: SD XVI.Qu.273
!!!SMS-shelfwork: 109 G
!!!NIFC-rismid:
!!!ONB-nifc: Melodiae na psalterz polski
**kern	**text	**kern	**text	**kern	**text	**kern	**text
*part4	*part4	*part3	*part3	*part2	*part2	*part1	*part1
*staff4	*staff4	*staff3	*staff3	*staff2	*staff2	*staff1	*staff1
*clefF4	*	*clefC3	*	*clefC3	*	*clefC1	*
*k[b-]	*	*k[b-]	*	*k[b-]	*	*k[b-]	*
*c:	*	*c:	*	*c:	*	*c:	*
*M2/1	*	*M2/1	*	*M2/1	*	*M2/1	*
*met(C|)	*	*met(C|)	*	*met(C|)	*	*met(C|)	*
*I"BASSUS.	*	*I"TENOR.	*	*I"ALTUS.	*	*I"CANTUS.	*
*>[A,A,B]	*	*>[A,A,B]	*	*>[A,A,B]	*	*>[A,A,B]	*
=1	=1	=1	=1	=1	=1	=1	=1
*>A	*	*>A	*	*>A	*	*>A	*
*	*^	*	*^	*	*^	*	*^
1G\	BO-	Nie-	1G/	BO-	Nie-	1d\	BO-	Nie-	1g\	BO-	Nie-
2E-X\	-ʒ̇e,	-chćiéy	2B-/	-ʒ̇e,	-chćiéy	2e-X\	-ʒ̇e,	-chćiéy	2g/	-ʒ̇e,	-chćiéy
2E-y\	któ-	krʒy-	2c/	któ-	krʒy-	2e-\	któ-	krʒy-	2g/	któ-	krʒy-
=2-	=2	=2	=2-	=2	=2	=2-	=2	=2	=2-	=2	=2
2D/	-(re-	-(wdy)	2d\	-(re-	-(wdy)	2B-/	-(re-	-(wdy)	2f/	-(re-	-(wdy)
2D/	-go)	méy	2d\	-go)	méy	2f\	-go)	méy	4a\	-go)	méy
.	.	.	.	.	.	.	.	.	4b-\	.	.
1C/	chwá-	mil-	1e-X\	chwa-	mil-	1g\	chwa-	mil-	1cc\	chwa-	mil-
=3-	=3	=3	=3-	=3	=3	=3-	=3	=3	=3-	=3	=3
2G\	-(ła)	-(czéć)	2d\	-(ła)	-(czéć)	2g\	-(ła)	-(czéć)	2b-\	-(ła)	-(czéć)
2D/	w mych	o-	2f\	w mych	o-	2f\	w mych	o-	2dd\	w mych	o-
!	!	!	!LO:SIC:s=2.e-:v	!	!	!	!	!	!	!	!
2E-X\	u-	-to	2.eny\	u-	-to	2g\	u-	-to	2.cc\	u-	-to
2E-y\	-śćiéch	wſʒe-	.	.	.	2g\	-śćiéch	wſʒe-	.	.	.
.	.	.	4d\	.	.	.	.	.	4b-\	-śćiéch	wſʒe-
=4-	=4	=4	=4-	=4	=4	=4-	=4	=4	=4-	=4	=4
1F\	wie-	-te-	4c/	-śćiéch	wſʒe-	2.f\	wie-	-te-	4a\	wie-	-te-
.	.	.	4B-/	.	.	.	.	.	2b-\	.	.
.	.	.	2c/	wie-	-te-	.	.	.	.	.	.
.	.	.	.	.	.	4e\	.	.	4a\	.	.
1BB-/	-(cʒna,)	-(cʒna)	1B-/	-cʒna,	-(cʒna)	1d\	-cʒna,	-cʒna	1b-\	-cʒna,	-cʒna
*	*v	*v	*	*v	*v	*	*v	*v	*	*v	*v
=5:|!	=5	=5:|!	=5	=5:|!	=5	=5:|!	=5
*>B	*	*>B	*	*>B	*	*>B	*
1D\	Gę-	2.F/	Gę-	1d\	Gę-	1a\	Gę-
.	.	4G/	.	.	.	.	.
2D/	-bá	4A/	-bà	2f\	-bà	2a\	-bà
.	.	4B-/	.	.	.	.	.
2E\	ná	2c/	nà	2e\	nà	2g/	nà
=6-	=6	=6-	=6	=6-	=6	=6-	=6
2BB-/	mię	2d\	mię	4d\	m(ię)	2b-\	mię
.	.	.	.	4e\	.	.	.
2FF/	ſye	2.d\	ſye	2f\	ſye	2a\	ſye
4GG/	tàr-	.	.	1d\	tàr-	1g\	tàr-
4AA/	.	4c/	.	.	.	.	.
!	!	!LO:N:vis=2	!	!	!	!	!
4BB-/	.	4B-/	tàr-	.	.	.	.
!	!	!LO:TX:t=P:za dużo o jedną nutę B-:problem	!	!	!	!	!
!	!	!LO:N:vis=2	!	!	!	!	!
4C/	.	4B-/	.	.	.	.	.
=7-	=7	=7-	=7	=7-	=7	=7-	=7
!!LO:PB:g=original
2D/	-ga:	2A/	-ga:	2d\	-ga:	2f#X/	-ga:
2C/	ię-	2c/	ię-	2e-X\	ię-	2g/	ię-
2E-X\	-ʒyk	2B-/	-ʒyk	2.e-y\	-ʒyk	2g/	-ʒyk
2C/	fàł-	2c/	fał-	.	.	1cc\	fał-
.	.	.	.	4f\	fał-	.	.
=8-	=8	=8-	=8	=8-	=8	=8-	=8
2G\	-ſʒy-	1d\	-ſʒy-	1g\	-sſʒy-	.	.
2GG/	.	.	.	.	.	2bnX\	-sſʒy-
2C/	-wy	2e\	-wy	2g\	-wy	2cc\	-wy
2FF/	Lu-	2c/	Lu-	2f\	Lu-	2a\	Lu-
=9-	=9	=9-	=9	=9-	=9	=9-	=9
2FF/	-dʒ́iom	2c/	-dʒ́iom	2f\	-dʒ́iom	2a\	-dʒ́iom
1BB-/	ʒ̇y-	2d\	ʒ̇y-	1f\	ʒ̇y-	2b-y\	ʒ̇y-
.	.	2d\	-wot	.	.	2b-\	-wot
2C/	-wot	4c/	móy	2eny\	-wot	4a\	móy
.	.	4B-/	.	.	.	4g\	.
=10-	=10	=10-	=10	=10-	=10	=10-	=10
2D/	móy	1A/	hy-	2d\	móy	1fny/	hy-
2D/	hy-	.	.	2d\	chy-	.	.
2.C/	-dʒ́i,	2.c/	-dʒ́i,	2.e\	-dʒ́i,	2.g/	-dʒ́i,
4C/	da	4B-/	da	4e\	da	4g/	da
=11-	=11	=11-	=11	=11-	=11	=11-	=11
2D/	bóg,	2A/	bóg,	2d\	bóg,	2f#X/	bóg,
2Eny\	ucʒ-	2G/	ucʒ-	2c/	ucʒ-	1g\	ucʒ-
1D\	-ći-	1A/	-ći-	2.d\	-ći-	.	.
.	.	.	.	.	.	2f#y/	-ći-
.	.	.	.	4c/	.	.	.
=12-	=12	=12-	=12	=12-	=12	=12-	=12
*000/left	*	*	*	*	*	*	*
000GG/	-wy.	000G/	-wy.	000G/	-wy.	000g\	-wy.
==	==	==	==	==	==	==	==
*-	*-	*-	*-	*-	*-	*-	*-
!!!RDF**kern: l = terminal long
!!!system-decoration: s1,s2,s3,s4
!!!ENC: Marta Lawrence
!!!END: 2020-02-18
!!!URL-scan: https://polona.pl/item/melodiae-na-psalterz-polski,Nzk3MTM4ODQ/253 Scan on Polona
!!!IIIF: https://polona.pl/iiif/item/Nzk3MTM4ODQ/manifest.json
